X:1
T:Title
%%score { 1 | 2 }
L:1/8
M:9/8
K:Eb
V:1 treble nm="Grand Piano"
V:2 bass 
V:1
 z3 z3[Q:1/4=100] GFE | [GB]3- [GB]2 [Ac] [GB]2 E | G6 GFE | [DF]3- [DF]2 [FA] [Ac][GB][FA] | %4
 G6 GFE | [GB]3- [GB]2 [Ac] [GB]2 E | G6 GFE | [DB]6 [B,D]3 |[M:3/4] [B,E]6 |[M:3/8] [Ge][Gd][Gc] | %10
[M:9/8] [Ad]6 [Ac][CGB][DFA] | [EGB]6 GAB | c3- c2 B B2 G | [DF]6 GFE | [GB]3- [GB]2 [Ac] [GB]2 E | %15
 G6 GFE | [DB]6 D3 |[M:3/4] E6 |] %18
V:2
 z3 z3 [E,B,E][E,A,E][E,G,] | [E,E]3- [E,E]2 [E,E] [E,E]2 [E,G,] | [E,B,E]6 [E,B,E][E,A,E][E,G,] | %3
 [B,,B,]3- [B,,B,]2 [B,,B,] [B,,B,]2 [B,,B,] | [E,B,E]6 [E,B,E][E,A,E][E,G,] | %5
 [E,E]3- [E,E]2 [E,E] [E,E]2 [E,G,] | [E,B,E]6 [E,B,E][E,A,E][E,G,] | [B,,F,]6 [B,,A,]3 | %8
[M:3/4] [E,G,]6 |[M:3/8] [E,B,][E,B,][E,B,] |[M:9/8] [F,B,]6 [B,,B,]B,,B,, | %11
 E,6 [E,B,E][F,B,D][G,B,E] | [A,E]3- [A,E]2 [E,G,E] [E,G,E]2 [E,B,E] | %13
 [B,,B,]6 [E,B,E][E,A,E][E,G,] | [E,E]3- [E,E]2 [E,E] [E,E]2 [E,G,] | %15
 [E,B,E]6 [E,B,E][E,A,E][E,G,] | [B,,F,]6 [B,,A,B,]3 |[M:3/4] [E,G,B,]6 |] %18

